assets/img/braze_icons/feather.svg

<svg fill="none" height="24" viewBox="0 0 24 24" width="24" xmlns="http://www.w3.org/2000/svg"><path d="m10.2915 3.30549c2.6699-2.426851 6.747-2.426851 9.4168 0 .1237.11239.2588.24746.4762.46497l.0451.045c.2175.21752.3525.35256.4649.47621 2.4269 2.66986 2.4269 6.74693 0 9.41683-.1742.1916-.4263.2915-.6853.2915h-9.0092c-.5523 0-1 .4477-1 1s.4477 1 1 1h5.4829c.6058 0 .9087 0 1.0489.1198.1218.1039.1863.2599.1738.4194-.0145.1839-.2287.3981-.6571.8265l-1.8728 1.8728-.036.0362c-.134.1346-.3026.3042-.509.4307-.1789.1096-.374.1904-.5781.2394-.2353.0565-.4744.0559-.6644.0554l-.051-.0001h-6.76929c-.25232 0-.49808 0-.70619-.017-.11576-.0094-.24206-.0254-.37379-.0568l-2.78082 2.7808c-.39053.3905-1.02369.3905-1.41422 0-.390521-.3905-.390521-1.0237 0-1.4142l2.78084-2.7808c-.03141-.1318-.04738-.2581-.05684-.3738-.017-.2082-.01698-.454-.01695-.7063l.00001-6.7692-.0001-.051c-.0005-.1899-.00114-.4291.05536-.66441.04899-.20407.1298-.39916.23946-.5781.12645-.20636.296-.375.43064-.50893l.03616-.03603 5.05386-5.05386c.21757-.21754.35257-.35258.47617-.46498z" fill="#801ed7"/></svg>

<svg width="24" height="24" viewBox="0 0 24 24" fill="none" xmlns="http://www.w3.org/2000/svg">
<path d="M10.2915 3.30549C12.9614 0.878639 17.0385 0.878639 19.7083 3.30549C19.832 3.41788 19.9671 3.55295 20.1845 3.77046L20.2296 3.81546C20.4471 4.03298 20.5821 4.16802 20.6945 4.29167C23.1214 6.96153 23.1214 11.0386 20.6945 13.7085C20.5203 13.9001 20.2682 14 20.0092 14L11 14C10.4477 14 10 14.4477 10 15C10 15.5523 10.4477 16 11 16L16.4829 16C17.0887 16 17.3916 16 17.5318 16.1198C17.6536 16.2237 17.7181 16.3797 17.7056 16.5392C17.6911 16.7231 17.4769 16.9373 17.0485 17.3657L15.1757 19.2385L15.1397 19.2747C15.0057 19.4093 14.8371 19.5789 14.6307 19.7054C14.4518 19.815 14.2567 19.8958 14.0526 19.9448C13.8173 20.0013 13.5782 20.0007 13.3882 20.0002L13.3372 20.0001L6.56791 20.0001C6.31559 20.0001 6.06983 20.0001 5.86172 19.9831C5.74596 19.9737 5.61966 19.9577 5.48793 19.9263L2.70711 22.7071C2.31658 23.0976 1.68342 23.0976 1.29289 22.7071C0.902369 22.3166 0.902369 21.6834 1.29289 21.2929L4.07373 18.5121C4.04232 18.3803 4.02635 18.254 4.01689 18.1383C3.99989 17.9301 3.99991 17.6843 3.99994 17.432L3.99995 10.6628L3.99985 10.6118C3.99935 10.4219 3.99871 10.1827 4.05521 9.94739C4.1042 9.74332 4.18501 9.54823 4.29467 9.36929C4.42112 9.16293 4.59067 8.99429 4.72531 8.86036L4.76147 8.82433L9.81533 3.77047C10.0329 3.55293 10.1679 3.41789 10.2915 3.30549Z" fill="#801ED7"/>
</svg>
